tools/download-figma-icons/icons/outlined-large/healthy.svg

<svg width="64" height="64" viewBox="0 0 64 64" fill="none" xmlns="http://www.w3.org/2000/svg">
<path fill-rule="evenodd" clip-rule="evenodd" d="M43.5 56.9998C40.146 56.9998 38.127 56.1368 38.106 56.1278L37.515 55.8678L36.915 56.1188C36.894 56.1278 34.771 56.9998 31.398 56.9998C25.357 56.9998 17.396 50.5588 14.835 38.3388L18.667 35.1458L21.053 43.8948C21.229 44.5368 21.806 44.9868 22.472 44.9998C23.155 45.0198 23.731 44.5848 23.931 43.9488L27.772 31.7188L30.009 52.6588C30.085 53.3788 30.665 53.9408 31.387 53.9958C31.425 53.9988 31.463 53.9998 31.501 53.9998C32.177 53.9998 32.776 53.5448 32.95 52.8818L36.587 39.0628L38.063 44.0258C38.249 44.6548 38.823 45.0898 39.479 45.0998H39.5C40.147 45.0998 40.723 44.6838 40.926 44.0668L42.587 38.9998H50.5C51.328 38.9998 52 38.3278 52 37.4998C52 36.6718 51.328 35.9998 50.5 35.9998H41.5C40.852 35.9998 40.276 36.4168 40.074 37.0318L39.57 38.5688L37.938 33.0718C37.747 32.4278 37.117 32.0198 36.477 31.9998C35.804 32.0098 35.221 32.4668 35.05 33.1168L32.126 44.2288L29.991 24.2388C29.916 23.5318 29.355 22.9758 28.648 22.9058C27.953 22.8178 27.282 23.2708 27.069 23.9488L22.602 38.1718L20.947 32.1048C20.813 31.6128 20.438 31.2218 19.95 31.0678C19.463 30.9128 18.93 31.0198 18.54 31.3468L14.277 34.8988C14.098 33.3438 14 31.7118 14 29.9988C14 19.5578 20.515 17.9988 24.398 17.9988C29.73 17.9988 36.865 20.8598 36.938 20.8898L37.504 21.1188L38.07 20.8868C38.141 20.8568 45.16 17.9988 50.5 17.9988C54.422 17.9988 61 19.5578 61 29.9988C61 41.0348 54.769 56.9998 43.5 56.9998ZM27.332 7.01784C31.81 7.26584 34.533 10.0728 35.933 12.1058C30.338 11.6678 28.162 8.85884 27.332 7.01784ZM50.5 14.9988C46.503 14.9988 41.872 16.3548 39.182 17.2788C40.035 11.8778 43.7 6.40184 43.742 6.34084C44.206 5.65384 44.026 4.72284 43.341 4.25784C42.657 3.79484 41.725 3.97184 41.259 4.65684C41.144 4.82684 39.637 7.08084 38.265 10.1928C35.935 6.95084 31.603 3.45584 25.201 4.07184C24.802 4.10984 24.436 4.30684 24.182 4.61684C23.929 4.92784 23.811 5.32684 23.854 5.72584C23.863 5.81984 24.961 14.6978 36.558 15.1438C36.377 15.8878 36.238 16.6418 36.143 17.3988C33.491 16.4798 28.573 14.9988 24.398 14.9988C16.009 14.9988 11 20.6058 11 29.9988C11 32.1078 11.145 34.1038 11.401 35.9998H1.5C0.672 35.9998 0 36.6718 0 37.4998C0 38.3278 0.672 38.9998 1.5 38.9998H11.92C14.857 52.7488 24.27 59.9998 31.398 59.9998C34.345 59.9998 36.502 59.4258 37.491 59.0988C38.466 59.4298 40.568 59.9998 43.5 59.9998C53.4 59.9998 64 47.9448 64 29.9988C64 16.0808 53.667 14.9988 50.5 14.9988Z" fill="black"/>
</svg>

<svg xmlns="http://www.w3.org/2000/svg" width="64" height="64" fill="none" viewBox="0 0 64 64"><path fill="currentColor" fill-rule="evenodd" d="M43.5 57c-3.354 0-5.373-.863-5.394-.872l-.591-.26-.6.25c-.021.01-2.144.882-5.517.882-6.041 0-14.002-6.441-16.563-18.661l3.832-3.193 2.386 8.749A1.5 1.5 0 0 0 22.472 45a1.476 1.476 0 0 0 1.459-1.051l3.841-12.23 2.237 20.94a1.5 1.5 0 0 0 2.941.223l3.637-13.82 1.476 4.964a1.5 1.5 0 0 0 1.416 1.074h.021c.647 0 1.223-.416 1.426-1.033L42.587 39H50.5a1.5 1.5 0 0 0 0-3h-9c-.648 0-1.224.417-1.426 1.032l-.504 1.537-1.632-5.497c-.191-.644-.821-1.052-1.461-1.072a1.5 1.5 0 0 0-1.427 1.117l-2.924 11.112-2.135-19.99a1.5 1.5 0 0 0-1.343-1.333c-.695-.088-1.366.365-1.579 1.043l-4.467 14.223-1.655-6.067a1.5 1.5 0 0 0-2.407-.758l-4.263 3.552a43 43 0 0 1-.277-4.9c0-10.441 6.515-12 10.398-12 5.332 0 12.467 2.86 12.54 2.89l.566.23.566-.232c.071-.03 7.09-2.888 12.43-2.888 3.922 0 10.5 1.559 10.5 12 0 11.036-6.231 27-17.5 27M27.332 7.018c4.478.248 7.201 3.055 8.601 5.088-5.595-.438-7.771-3.247-8.601-5.088m23.168 7.98c-3.997 0-8.628 1.357-11.318 2.28.853-5.4 4.518-10.876 4.56-10.937a1.501 1.501 0 0 0-2.483-1.684c-.115.17-1.622 2.424-2.994 5.536-2.33-3.242-6.662-6.737-13.064-6.121a1.5 1.5 0 0 0-1.347 1.654c.009.094 1.107 8.972 12.704 9.418q-.272 1.118-.415 2.255c-2.652-.92-7.57-2.4-11.745-2.4-8.389 0-13.398 5.607-13.398 15 0 2.109.145 4.105.401 6H1.5a1.5 1.5 0 0 0 0 3h10.42c2.937 13.75 12.35 21 19.478 21 2.947 0 5.104-.573 6.093-.9.975.33 3.077.9 6.009.9C53.4 60 64 47.946 64 30c0-13.918-10.333-15-13.5-15" clip-rule="evenodd"/></svg>
